X: 1
T:Crusader's Hymn
M:C
L: 1/4
Q: 1/2=100
K: Eb
 e2ee  |  (fd)e2  |  g3/2g/2gg  | (af)g2 | b2c'c' |  b2(ag) | a2g2|
 f3z  |  b2(c'b)  |  (bga2) | a2ba | (afg)g | gg(ba) | g2f2 | e3z ||
